<?xml version="1.0" encoding="UTF-8"?>
<map version="1.10" tiledversion="1.11.0" orientation="orthogonal" renderorder="right-down" width="23" height="37" tilewidth="70" tileheight="70" infinite="0" nextlayerid="5" nextobjectid="54">
 <objectgroup id="1" name="walls">
  <object id="1" x="0" y="0" width="1610" height="70"/>
  <object id="2" x="0" y="2520" width="1610" height="70"/>
  <object id="3" x="0" y="70" width="70" height="2520"/>
  <object id="4" x="1540" y="0" width="70" height="2520"/>
  <object id="5" x="70" y="2030" width="140" height="70"/>
  <object id="6" x="1400" y="490" width="140" height="70"/>
  <object id="7" x="350" y="2030" width="420" height="70"/>
  <object id="8" x="840" y="490" width="420" height="70"/>
  <object id="9" x="840" y="2030" width="420" height="70"/>
  <object id="10" x="350" y="490" width="420" height="70"/>
  <object id="11" x="1400" y="2030" width="140" height="70"/>
  <object id="12" x="70" y="490" width="140" height="70"/>
  <object id="13" x="70" y="2170" width="420" height="70"/>
  <object id="14" x="1120" y="350" width="420" height="70"/>
  <object id="15" x="560" y="2170" width="490" height="70"/>
  <object id="16" x="560" y="350" width="490" height="70"/>
  <object id="17" x="1120" y="2170" width="420" height="70"/>
  <object id="18" x="70" y="350" width="420" height="70"/>
  <object id="19" x="420" y="2310" width="70" height="210"/>
  <object id="20" x="1120" y="70" width="70" height="210"/>
  <object id="21" x="1120" y="2310" width="70" height="210"/>
  <object id="22" x="420" y="70" width="70" height="210"/>
  <object id="23" x="420" y="1330" width="70" height="560"/>
  <object id="24" x="1120" y="700" width="70" height="560"/>
  <object id="25" x="1120" y="1330" width="70" height="560"/>
  <object id="26" x="420" y="700" width="70" height="560"/>
 </objectgroup>
 <objectgroup id="2" name="crates">
  <object id="27" x="70" y="1680" width="210" height="70"/>
  <object id="28" x="1330" y="840" width="210" height="70"/>
  <object id="29" x="280" y="1540" width="70" height="70"/>
  <object id="30" x="1260" y="980" width="70" height="70"/>
  <object id="31" x="1330" y="1680" width="210" height="70"/>
  <object id="32" x="70" y="840" width="210" height="70"/>
  <object id="33" x="1260" y="1540" width="70" height="70"/>
  <object id="34" x="280" y="980" width="70" height="70"/>
  <object id="35" x="560" y="1470" width="210" height="70"/>
  <object id="36" x="840" y="1050" width="210" height="70"/>
  <object id="37" x="840" y="1470" width="210" height="70"/>
  <object id="38" x="560" y="1050" width="210" height="70"/>
  <object id="39" x="770" y="1610" width="70" height="70"/>
  <object id="40" x="770" y="910" width="70" height="70"/>
  <object id="41" x="630" y="1750" width="70" height="70"/>
  <object id="42" x="910" y="770" width="70" height="70"/>
  <object id="43" x="910" y="1750" width="70" height="70"/>
  <object id="44" x="630" y="770" width="70" height="70"/>
  <object id="45" x="770" y="1260" width="70" height="70"/>
 </objectgroup>
 <objectgroup id="4" name="bases">
  <object id="46" x="70" y="2030" width="1470" height="490">
   <properties>
    <property name="team" value="A"/>
   </properties>
  </object>
  <object id="47" x="70" y="70" width="1470" height="490">
   <properties>
    <property name="team" value="B"/>
   </properties>
  </object>
 </objectgroup>
 <objectgroup id="3" name="spawns">
  <object id="48" x="245" y="2415">
   <properties>
    <property name="team" value="A"/>
   </properties>
   <point/>
  </object>
  <object id="49" x="805" y="2415">
   <properties>
    <property name="team" value="A"/>
   </properties>
   <point/>
  </object>
  <object id="50" x="1365" y="2415">
   <properties>
    <property name="team" value="A"/>
   </properties>
   <point/>
  </object>
  <object id="51" x="1365" y="175">
   <properties>
    <property name="team" value="B"/>
   </properties>
   <point/>
  </object>
  <object id="52" x="805" y="175">
   <properties>
    <property name="team" value="B"/>
   </properties>
   <point/>
  </object>
  <object id="53" x="245" y="175">
   <properties>
    <property name="team" value="B"/>
   </properties>
   <point/>
  </object>
 </objectgroup>
</map>
